symbols/web/format_color_fill/materialsymbolsrounded/format_color_fill_wght100gradN25_24px.svg

<svg xmlns="http://www.w3.org/2000/svg" height="24" width="24"><path d="M10.55 16.65q-.275 0-.538-.1-.262-.1-.487-.325L5.95 12.6q-.25-.225-.35-.5-.1-.275-.1-.55 0-.3.1-.562.1-.263.35-.488l4.175-4.125L7 3.275q-.1-.1-.1-.225t.125-.25q.075-.1.2-.1t.225.1l7.7 7.7q.225.225.338.488.112.262.112.562 0 .275-.112.55-.113.275-.338.5l-3.575 3.625q-.2.2-.475.313-.275.112-.55.112Zm.025-9.825-4.25 4.2q-.125.125-.163.262-.037.138-.037.288h8.85q0-.15-.05-.288-.05-.137-.15-.262Zm7.8 11.075q-.55 0-.925-.375t-.375-.925q0-.425.213-.8l.412-.725q.175-.25.338-.463.162-.212.337-.462.175.25.35.462.175.213.35.463l.413.725q.212.375.212.8 0 .55-.388.925-.387.375-.937.375Zm-15.65 6.025q-.25 0-.45-.2t-.2-.45q0-.25.2-.438.2-.187.45-.187H21.3q.25 0 .438.187.187.188.187.438t-.187.45q-.188.2-.438.2Z"/></svg>

<svg xmlns="http://www.w3.org/2000/svg" height="24" width="24"><path d="M10.55 16.65Q10.275 16.65 10.012 16.55Q9.75 16.45 9.525 16.225L5.95 12.6Q5.7 12.375 5.6 12.1Q5.5 11.825 5.5 11.55Q5.5 11.25 5.6 10.988Q5.7 10.725 5.95 10.5L10.125 6.375L7 3.275Q6.9 3.175 6.9 3.05Q6.9 2.925 7.025 2.8Q7.1 2.7 7.225 2.7Q7.35 2.7 7.45 2.8L15.15 10.5Q15.375 10.725 15.488 10.988Q15.6 11.25 15.6 11.55Q15.6 11.825 15.488 12.1Q15.375 12.375 15.15 12.6L11.575 16.225Q11.375 16.425 11.1 16.538Q10.825 16.65 10.55 16.65ZM10.575 6.825 6.325 11.025Q6.2 11.15 6.162 11.287Q6.125 11.425 6.125 11.575H14.975Q14.975 11.425 14.925 11.287Q14.875 11.15 14.775 11.025ZM18.375 17.9Q17.825 17.9 17.45 17.525Q17.075 17.15 17.075 16.6Q17.075 16.175 17.288 15.8Q17.5 15.425 17.7 15.075Q17.875 14.825 18.038 14.612Q18.2 14.4 18.375 14.15Q18.55 14.4 18.725 14.612Q18.9 14.825 19.075 15.075Q19.275 15.425 19.488 15.8Q19.7 16.175 19.7 16.6Q19.7 17.15 19.312 17.525Q18.925 17.9 18.375 17.9ZM2.725 23.925Q2.475 23.925 2.275 23.725Q2.075 23.525 2.075 23.275Q2.075 23.025 2.275 22.837Q2.475 22.65 2.725 22.65H21.3Q21.55 22.65 21.738 22.837Q21.925 23.025 21.925 23.275Q21.925 23.525 21.738 23.725Q21.55 23.925 21.3 23.925Z"/></svg>
